X:43
T:Foots Vagaries or... Ru1.043
%%VWML:RutherfordVol1-2248-p22-0p22
Z:Transcription by Village Music Project, Steve Mansfield July 2015
F:http://www.village-music-project.org.uk/
F:http://www.vwml.org/record/RutherfordVol1/2248/p22
Z:vmp.Mike Hicken 2015 www.village-music-project.org.uk
M:C|
Q:1/4=100
K:Em
G/G/G (TB>A) BGGB|A/A/A c>d eAAB|c>dec B>cdB| AcBA GE E2||
g2 (Tf>e) gddg|eaag aeef|g>age d/c/B/A/ GB|AcBA GE E2 |]
W:
W: The first Cou. foots it to the 2d Wo. & turns her .|
W: The same to the 2d :|  Cross over 2 couples Lead up
W: to the Top. foot it & cast off :||:  Set Corners & turn .||
W: Set the other Corner & turn :||  Lead out Sides and
W: turn your Partner :|
|:
T:Fausans Maggot. Ru1.044
L:1/8
R:Maggot
B:RUTHERFORD Complete Collection of 200 Country Dances Vol.1; London: David & John Rutherford 1756.
Z:vmp.Mike Hicken 2015 www.village-music-project.org.uk
N: * This note is shown as a crotchet in the original. It has been changed to a minim to give
N: the correct number of beats in the bar.
M:C|
Q:1/4=100
K:D
DF-FE EG-GF|FG/A/ GF E2D2|DFFE EGGF|FG/A/ GF "*"E4||
(d/c/B/A/) (d/c/B/A/) Bd d2|(d/c/B/A/) (d/c/B/A/) GFF2|
(d/c/B/A/) (d/c/B/A/)B2g2|fe/d/ Ac d2D2 :|
W:
W: Foot it & cast off 2 Couples .|  Foot it and
W: cast up again :|  Gallop down the Middle &
W: up again & cast off .|.  Rt Hand & Left :|
|:
